X: 21344
T: Kermeskis
R: jig
M: 6/8
K: Eminor
|:BB/B/ B BB/B/ B|BAF ABd|BB/B/ B BB/B/ B|fee ede:|
|:B2 B BAF|EDB, E3|EDB, A,2 B,|B,EA, B,3:|
|:BB/B/ B BB/B/ B|BAF ABd|BB/B/ B BB/B/ B|fee ede|
B,EE A,DD|EDB, E3|B2 B BAF|B,BB EDB,:|
|:BB/B/ B BB/B/ B|BAF ABd|BB/B/ B BB/B/ B|fee ede:|
|:B2 B BAF|EDB, E3|EDB, A,2 B,|1 B,EA, B,3:|2 B,BB EDB,|B6||

